X:19080
T:Xiraldilla (CT 422) (Arrg.)
R:Xiraldilla
C:Tradicional
S:Msica Tradicional Asturiana, (C) Tello & Tito. Asturies, 2001.
S:http://pagina.de/MusTradAst <telloytito@asturies.org>
N:Xiraldilla, transcrita en Uviu.
O:Uviu
A:Asturies
G:Arrg.
Z:Cancioneru de Torner 422
M:2/4
L:1/8
Q:1/4=160
W:Tengo, tengo, tengo
W:y t no tienes nada:
W:tengo dos cabrites
W:arriba en la montaa.
W:Una me da leche,
W:otra me da lana;
W:una me da leche
W:pa toda la semana.
K:Cm
|:"Gm"GG GG|"Fm"c2 c2|"Gm"dd c=B|"Fm"c2 c2|
"Fm"FF FF|"Gm"B2 GG|"Fm"AA GF|"Gm"G2 G2:||
